gnome/icons/Varda/apps/scalable/preferences-desktop-apps.svg

<?xml version="1.0" encoding="UTF-8" standalone="no"?>
<svg
   xmlns:dc="http://purl.org/dc/elements/1.1/"
   xmlns:cc="http://creativecommons.org/ns#"
   xmlns:rdf="http://www.w3.org/1999/02/22-rdf-syntax-ns#"
   xmlns:svg="http://www.w3.org/2000/svg"
   xmlns="http://www.w3.org/2000/svg"
   xmlns:sodipodi="http://sodipodi.sourceforge.net/DTD/sodipodi-0.dtd"
   xmlns:inkscape="http://www.inkscape.org/namespaces/inkscape"
   width="64px"
   height="64px"
   viewBox="0 0 64 64"
   version="1.1"
   id="svg13"
   sodipodi:docname="com.github.themix_project.Oomox.svg"
   inkscape:version="1.0.2 (e86c870879, 2021-01-15)">
  <metadata
     id="metadata19">
    <rdf:RDF>
      <cc:Work
         rdf:about="">
        <dc:format>image/svg+xml</dc:format>
        <dc:type
           rdf:resource="http://purl.org/dc/dcmitype/StillImage" />
      </cc:Work>
    </rdf:RDF>
  </metadata>
  <defs
     id="defs17" />
  <sodipodi:namedview
     pagecolor="#ffffff"
     bordercolor="#666666"
     borderopacity="1"
     objecttolerance="10"
     gridtolerance="10"
     guidetolerance="10"
     inkscape:pageopacity="0"
     inkscape:pageshadow="2"
     inkscape:window-width="2560"
     inkscape:window-height="1403"
     id="namedview15"
     showgrid="false"
     inkscape:zoom="15.75"
     inkscape:cx="32"
     inkscape:cy="32"
     inkscape:window-x="0"
     inkscape:window-y="0"
     inkscape:window-maximized="1"
     inkscape:current-layer="surface1" />
  <g
     id="surface1">
    <path
       style="fill:#52677c;fill-opacity:1;fill-rule:nonzero;stroke:none"
       d="m 5.292969,7.113281 h 52.914062 c 1.460938,0 2.648438,1.1875 2.648438,2.648438 v 44.976562 c 0,1.460938 -1.1875,2.648438 -2.648438,2.648438 H 5.292969 c -1.460938,0 -2.648438,-1.1875 -2.648438,-2.648438 V 9.761719 c 0,-1.460938 1.1875,-2.648438 2.648438,-2.648438 z m 0,0"
       id="path2" />
    <path
       style="fill:#257b76;fill-opacity:1;fill-rule:nonzero;stroke:none"
       d="M 3.511719,7.796875 C 2.980469,8.28125 2.644531,8.980469 2.644531,9.761719 v 44.976562 c 0,1.46875 1.179688,2.648438 2.648438,2.648438 h 52.914062 c 0.671875,0 1.28125,-0.25 1.746094,-0.65625 l -43.875,-39.03125 z m 0,0"
       id="path4" />
    <path
       style="fill:#733447;fill-opacity:1;fill-rule:nonzero;stroke:none"
       d="M 60.023438,7.832031 3.476562,56.667969 c 0.472657,0.445312 1.109376,0.71875 1.816407,0.71875 h 52.914062 c 1.46875,0 2.648438,-1.179688 2.648438,-2.648438 V 9.761719 C 60.855469,9 60.535156,8.3125 60.023438,7.832031 Z m 0,0"
       id="path6" />
    <path
       style="fill:#0c0e11;fill-opacity:1;fill-rule:nonzero;stroke:none"
       d="m 26.652344,18.402344 c -0.546875,0 -1.097656,0.05469 -1.640625,0.167968 l -0.652344,2.441407 -1.261719,0.726562 -2.441406,-0.652343 c -0.742188,0.828124 -1.289062,1.792968 -1.632812,2.820312 l 1.789062,1.789062 v 1.457032 L 19.027344,28.9375 c 0.171875,0.507812 0.394531,1.007812 0.671875,1.492188 0.28125,0.484374 0.601562,0.929687 0.960937,1.328124 l 2.4375,-0.652343 1.261719,0.730469 0.652344,2.441406 c 1.0625,0.21875 2.171875,0.226562 3.257812,-0.0039 l 0.65625,-2.4375 1.261719,-0.730469 2.4375,0.65625 c 0.742188,-0.828125 1.292969,-1.792969 1.632812,-2.820313 L 32.46875,27.152344 v -1.457032 l 1.785156,-1.785156 C 34.085938,23.402344 33.859375,22.898438 33.582031,22.417969 33.300781,21.933594 32.980469,21.488281 32.625,21.085938 l -2.4375,0.652343 -1.261719,-0.726562 -0.65625,-2.441407 c -0.53125,-0.109374 -1.074219,-0.167968 -1.617187,-0.167968 z m -0.01172,4.644531 c 1.871094,0 3.375,1.507813 3.375,3.375 0,1.871094 -1.503906,3.378906 -3.375,3.378906 -1.871094,0 -3.375,-1.507812 -3.375,-3.378906 0,-1.867187 1.503906,-3.375 3.375,-3.375 z m 0,0"
       id="path8" />
    <path
       style="fill:#0c0e11;fill-opacity:1;fill-rule:nonzero;stroke:none"
       d="m 37.699219,30.773438 c -0.546875,0 -1.09375,0.05469 -1.640625,0.167968 l -0.652344,2.441406 -1.261719,0.726563 -2.441406,-0.652344 C 30.964844,34.285156 30.414062,35.25 30.074219,36.277344 l 1.789062,1.789062 v 1.457032 l -1.785156,1.785156 c 0.167969,0.507812 0.390625,1.007812 0.671875,1.492187 0.277344,0.484375 0.601562,0.929688 0.957031,1.332031 l 2.4375,-0.65625 1.261719,0.730469 0.65625,2.441407 c 1.058594,0.21875 2.167969,0.226562 3.257812,-0.0039 l 0.652344,-2.4375 1.261719,-0.730469 2.441406,0.65625 c 0.738281,-0.828124 1.289063,-1.792968 1.628907,-2.820312 l -1.785157,-1.789062 v -1.457032 l 1.78125,-1.785156 c -0.167969,-0.507812 -0.390625,-1.007812 -0.671875,-1.492188 -0.277344,-0.484374 -0.601562,-0.929687 -0.957031,-1.332031 l -2.4375,0.652344 -1.261719,-0.726563 -0.652344,-2.441406 c -0.53125,-0.109375 -1.074218,-0.167968 -1.621093,-0.167968 z m -0.0078,4.644531 c 1.867188,0 3.375,1.507812 3.375,3.375 0,1.871093 -1.507812,3.378906 -3.375,3.378906 -1.871094,0 -3.378906,-1.507813 -3.378906,-3.378906 0,-1.867188 1.507812,-3.375 3.378906,-3.375 z m 0,0"
       id="path10" />
  </g>
</svg>

<?xml version="1.0" encoding="UTF-8"?>
<svg xmlns="http://www.w3.org/2000/svg" xmlns:xlink="http://www.w3.org/1999/xlink" width="64px" height="64px" viewBox="0 0 64 64" version="1.1">
<g id="surface1">
<path style=" stroke:none;fill-rule:nonzero;fill:rgb(100%,71.764708%,30.19608%);fill-opacity:1;" d="M 5.292969 7.113281 L 58.207031 7.113281 C 59.667969 7.113281 60.855469 8.300781 60.855469 9.761719 L 60.855469 54.738281 C 60.855469 56.199219 59.667969 57.386719 58.207031 57.386719 L 5.292969 57.386719 C 3.832031 57.386719 2.644531 56.199219 2.644531 54.738281 L 2.644531 9.761719 C 2.644531 8.300781 3.832031 7.113281 5.292969 7.113281 Z M 5.292969 7.113281 "/>
<path style=" stroke:none;fill-rule:nonzero;fill:rgb(94.117647%,38.431373%,57.254905%);fill-opacity:1;" d="M 3.511719 7.796875 C 2.980469 8.28125 2.644531 8.980469 2.644531 9.761719 L 2.644531 54.738281 C 2.644531 56.207031 3.824219 57.386719 5.292969 57.386719 L 58.207031 57.386719 C 58.878906 57.386719 59.488281 57.136719 59.953125 56.730469 L 16.078125 17.699219 Z M 3.511719 7.796875 "/>
<path style=" stroke:none;fill-rule:nonzero;fill:rgb(72.941178%,40.784314%,78.431374%);fill-opacity:1;" d="M 60.023438 7.832031 L 3.476562 56.667969 C 3.949219 57.113281 4.585938 57.386719 5.292969 57.386719 L 58.207031 57.386719 C 59.675781 57.386719 60.855469 56.207031 60.855469 54.738281 L 60.855469 9.761719 C 60.855469 9 60.535156 8.3125 60.023438 7.832031 Z M 60.023438 7.832031 "/>
<path style=" stroke:none;fill-rule:nonzero;fill:rgb(93.333334%,93.333334%,93.333334%);fill-opacity:1;" d="M 26.652344 18.402344 C 26.105469 18.402344 25.554688 18.457031 25.011719 18.570312 L 24.359375 21.011719 L 23.097656 21.738281 L 20.65625 21.085938 C 19.914062 21.914062 19.367188 22.878906 19.023438 23.90625 L 20.8125 25.695312 L 20.8125 27.152344 L 19.027344 28.9375 C 19.199219 29.445312 19.421875 29.945312 19.699219 30.429688 C 19.980469 30.914062 20.300781 31.359375 20.660156 31.757812 L 23.097656 31.105469 L 24.359375 31.835938 L 25.011719 34.277344 C 26.074219 34.496094 27.183594 34.503906 28.269531 34.273438 L 28.925781 31.835938 L 30.1875 31.105469 L 32.625 31.761719 C 33.367188 30.933594 33.917969 29.96875 34.257812 28.941406 L 32.46875 27.152344 L 32.46875 25.695312 L 34.253906 23.910156 C 34.085938 23.402344 33.859375 22.898438 33.582031 22.417969 C 33.300781 21.933594 32.980469 21.488281 32.625 21.085938 L 30.1875 21.738281 L 28.925781 21.011719 L 28.269531 18.570312 C 27.738281 18.460938 27.195312 18.402344 26.652344 18.402344 Z M 26.640625 23.046875 C 28.511719 23.046875 30.015625 24.554688 30.015625 26.421875 C 30.015625 28.292969 28.511719 29.800781 26.640625 29.800781 C 24.769531 29.800781 23.265625 28.292969 23.265625 26.421875 C 23.265625 24.554688 24.769531 23.046875 26.640625 23.046875 Z M 26.640625 23.046875 "/>
<path style=" stroke:none;fill-rule:nonzero;fill:rgb(93.333334%,93.333334%,93.333334%);fill-opacity:1;" d="M 37.699219 30.773438 C 37.152344 30.773438 36.605469 30.828125 36.058594 30.941406 L 35.40625 33.382812 L 34.144531 34.109375 L 31.703125 33.457031 C 30.964844 34.285156 30.414062 35.25 30.074219 36.277344 L 31.863281 38.066406 L 31.863281 39.523438 L 30.078125 41.308594 C 30.246094 41.816406 30.46875 42.316406 30.75 42.800781 C 31.027344 43.285156 31.351562 43.730469 31.707031 44.132812 L 34.144531 43.476562 L 35.40625 44.207031 L 36.0625 46.648438 C 37.121094 46.867188 38.230469 46.875 39.320312 46.644531 L 39.972656 44.207031 L 41.234375 43.476562 L 43.675781 44.132812 C 44.414062 43.304688 44.964844 42.339844 45.304688 41.3125 L 43.519531 39.523438 L 43.519531 38.066406 L 45.300781 36.28125 C 45.132812 35.773438 44.910156 35.273438 44.628906 34.789062 C 44.351562 34.304688 44.027344 33.859375 43.671875 33.457031 L 41.234375 34.109375 L 39.972656 33.382812 L 39.320312 30.941406 C 38.789062 30.832031 38.246094 30.773438 37.699219 30.773438 Z M 37.691406 35.417969 C 39.558594 35.417969 41.066406 36.925781 41.066406 38.792969 C 41.066406 40.664062 39.558594 42.171875 37.691406 42.171875 C 35.820312 42.171875 34.3125 40.664062 34.3125 38.792969 C 34.3125 36.925781 35.820312 35.417969 37.691406 35.417969 Z M 37.691406 35.417969 "/>
</g>
</svg>
